X:1
T:Storrs, LM
T:Timothy Richard Matthews, 1884
T:Storrs, LM
T:Public Domain
C:Timothy Richard Matthews, 1884
Z:Public Domain
%%score ( 1 2 ) ( 3 4 )
L:1/8
M:3/4
K:Eb
V:1 treble 
V:2 treble 
V:3 bass 
V:4 bass 
V:1
 [EG]2 [EG]2 [EG]2 | [DF]4 E2 | [CE]4 [B,D]2 | [B,E]6 | [DF]2 [DF]2 [DF]2 | [EG]4 [FB]2 | %6
 [EB]4 [E=A]2 | [DB]6 | [Ec]2 [Ec]2 [Ac]2 | [Ad]4 [Ge]2 | [FB]4 [FA]2 | [EG]6 | [DG]2 [FG]2 [EG]2 | %13
 [CF]4 [CE]2 | [B,E]4 [B,D]2 | [B,E]6 |] %16
V:2
 x6 | x4 E2 | x6 | x6 | x6 | x6 | x6 | x6 | x6 | x6 | x6 | x6 | x6 | x6 | x6 | x6 |] %16
V:3
 [E,B,]2 [E,B,]2 [E,B,]2 | [B,,B,]4 [G,,B,]2 | [A,,F,]4 [B,,F,]2 | [E,G,]6 | %4
 [B,,B,]2 [B,,B,]2 [B,,B,]2 | [E,B,]4 [D,B,]2 | [C,C]4 [C,F,]2 | [B,,F,]6 | %8
 [A,,A,]2 [A,,A,]2 [A,,A,]2 | [F,A,]4 [E,B,]2 | [D,B,]4 [D,B,]2 | [E,B,]6 | %12
 [G,,=B,]2 [=B,,D]2 [C,C]2 | [F,A,]4 [A,,A,]2 | (G,2 F,2) [B,,F,]2 | [E,G,]6 |] %16
V:4
 x6 | x6 | x6 | x6 | x6 | x6 | x6 | x6 | x6 | x6 | x6 | x6 | x6 | x6 | B,,4 x2 | x6 |] %16

